icon/ir/drone-check.svg

<svg viewBox="0 0 24 24" stroke-width="1.5" fill="none" xmlns="http://www.w3.org/2000/svg" height="1em" width="1em">
  <path d="M13.463 17H10.537C10.2313 17 9.97446 16.7701 9.9407 16.4663L9.07403 8.66626C9.03454 8.31084 9.31275 8 9.67036 8L14.3296 8C14.6872 8 14.9655 8.31084 14.926 8.66626L14.0593 16.4663C14.0255 16.7701 13.7687 17 13.463 17Z" stroke="currentColor" stroke-linecap="round"/>
  <path d="M4.5 7C5.88071 7 7 5.88071 7 4.5C7 3.11929 5.88071 2 4.5 2C3.11929 2 2 3.11929 2 4.5C2 5.88071 3.11929 7 4.5 7Z" stroke="currentColor" stroke-miterlimit="1.5" stroke-linecap="round" stroke-linejoin="round"/>
  <path d="M4.5 4.5L9 8" stroke="currentColor" stroke-linecap="round" stroke-linejoin="round"/>
  <path d="M4.49988 19.5L9.5 15.5" stroke="currentColor" stroke-linecap="round" stroke-linejoin="round"/>
  <path d="M19.5 4.5L15 8" stroke="currentColor" stroke-linecap="round" stroke-linejoin="round"/>
  <path d="M14.5 15.5L15.75 16.5" stroke="currentColor" stroke-linecap="round" stroke-linejoin="round"/>
  <path d="M4.5 22C5.88071 22 7 20.8807 7 19.5C7 18.1193 5.88071 17 4.5 17C3.11929 17 2 18.1193 2 19.5C2 20.8807 3.11929 22 4.5 22Z" stroke="currentColor" stroke-miterlimit="1.5" stroke-linecap="round" stroke-linejoin="round"/>
  <path d="M19.5 7C20.8807 7 22 5.88071 22 4.5C22 3.11929 20.8807 2 19.5 2C18.1193 2 17 3.11929 17 4.5C17 5.88071 18.1193 7 19.5 7Z" stroke="currentColor" stroke-miterlimit="1.5" stroke-linecap="round" stroke-linejoin="round"/>
  <path d="M16 20L18 22L22 18" stroke="currentColor" stroke-linecap="round" stroke-linejoin="round"/>
</svg>

<svg width="24" height="24" stroke-width="1.5" fill="none" xmlns="http://www.w3.org/2000/svg"><path d="M13.463 17h-2.926a.6.6 0 0 1-.596-.534l-.867-7.8A.6.6 0 0 1 9.67 8h4.66a.6.6 0 0 1 .596.666l-.867 7.8a.6.6 0 0 1-.596.534Z" stroke="currentColor" stroke-linecap="round"/><path d="M4.5 7a2.5 2.5 0 1 0 0-5 2.5 2.5 0 0 0 0 5Z" stroke="currentColor" stroke-miterlimit="1.5" stroke-linecap="round" stroke-linejoin="round"/><path d="M4.5 4.5 9 8M4.5 19.5l5-4M19.5 4.5 15 8M14.5 15.5l1.25 1" stroke="currentColor" stroke-linecap="round" stroke-linejoin="round"/><path d="M4.5 22a2.5 2.5 0 1 0 0-5 2.5 2.5 0 0 0 0 5ZM19.5 7a2.5 2.5 0 1 0 0-5 2.5 2.5 0 0 0 0 5Z" stroke="currentColor" stroke-miterlimit="1.5" stroke-linecap="round" stroke-linejoin="round"/><path d="m16 20 2 2 4-4" stroke="currentColor" stroke-linecap="round" stroke-linejoin="round"/></svg>
